!!!OTL: Dujiang da chongfeng
!!!ARE: Asia, China,ÿJiangsu Rugao
!! III, 465, 1)
!!!SCT: C2028
!!!YEM: Copyright 1995, estate of Helmut Schaffrath.
**kern
*ICvox
*Ivox
*M2/4
*k[f#c#]
*D:
{8dd
8f#
4a
=1
8dd
16ee
16ff#
4dd
=2
8dd
8ff#
8ee
16dd
16b
=3
8a
8f#
4a}
=4
{8.dd
16dd
8ee
16dd
16dd
=5
16f#
16a
16b
16dd
8a
8f#
=6
8a
8dd
8dd
8f#
=7
16a
16b
16f#
16e
4d}
=8
{8.f#
16a
8f#
16e
16f#
=9
8a
8b
4a}
=10
{8a
8dd
8dd
16f#
16e
=11
16a
16b
16f#
16e
4d}
==
!!!AGN: Xiaodiao, Mantou diao
!!!AMT: simple duple
!!!AIN: vox
!!!EED: Helmut Schaffrath
!!!EEV: 1.0
*-
